X: 21586
T: Killaloe Boat, The
R: jig
M: 6/8
K: Adorian
G|EAA EAA|BAB GBd|~e3 edB|dBA BAG|
EDE ABc|BAB G2d|~e3 edB|dBA A2:|
B|def ~g3|age edB|def ~g3|age age|
def ~g3|age edB|~e3 edB|dBA A2:|

